www/assets/icons/playlist_remove.svg

<svg xmlns="http://www.w3.org/2000/svg" width="24" height="24" viewBox="0 0 24 24" fill='currentColor'><path d="M14 8H3v2h11zm0-4H3v2h11zM3 14h7v-2H3zm11.41 6L17 17.41 19.59 20 21 18.59 18.41 16 21 13.41 19.59 12 17 14.59 14.41 12 13 13.41 15.59 16 13 18.59z"/></svg>

<svg width="24" height="24" viewBox="0 0 24 24" xmlns="http://www.w3.org/2000/svg" fill='currentColor'><path d="M14 8H3V10H14V8ZM14 4H3V6H14V4ZM3 14H10V12H3V14ZM14.41 20L17 17.41L19.59 20L21 18.59L18.41 16L21 13.41L19.59 12L17 14.59L14.41 12L13 13.41L15.59 16L13 18.59L14.41 20Z"/></svg>
